X: 1
T: Mrs Carolan's
M: 4/4
L: 1/8
R: reel
K: Ddor
ADED AGEG|ADDF ECEG|ADED AGEG|ABcA G2EG|
AD (3DDD AGEG|ADDF ECEG|A2AB c2Bc|ABcA G2EG||
Adde dcAG|Add^c d2d=c|Adde dcAG|ABcA G2EG:|
